X:402
T:Cregg's Pipes / Thady Casey's
Z:Julie Ross with help from Comhaltas and Norbeck
M: 4/4
L: 1/8
R: reel
K: Gmaj
"Cregg's Pipes"
B3A BAGA | B2GB AGEG | B3A BAGB | AcBG AGEG |
B3A BAGA | B2GB AGEG | Bded BddB | (3ABc BG AGEG ||
DGGF G2BG | DGBG AGEG | DGGF GABc | dBAc BAGE |
D~G3 DGBG | DGBG AGEG | DGGF G2Bc | dBAc BAGB ||
d2Bd efge | d2BG AGEG | d2Bd efgb | a3b ageg |
d2Bd efge | d2BG AGEG | d2Bd efge | a3b aged ||
K: Em
"Thady Casey's aka The Star of Kilkenny"
~B3A Bded|BdAc BE~E2|BAGA (3Bcd ef|1 gfed Bded:|2 gfed Bdef||
g3e dB~B2|dggd Bdef|gfga b2af|1 gfed Bdef:|2 gfed Bded||
